X: 149
T: Da qiuqian
%%abc-version 2.0
%%abcx-abcm2ps-target-version 5.9.1 (29 Sep 2008)
%%abc-creator hum2abc beta
%%abcx-conversion-date 2013/10/02 07:52:29
%%abc-edited-by Helmut Schaffrath
%%humdrum-veritas 1019913044
%%humdrum-veritas-data 3834123175
%%continueall 1
%%barnumbers 0
L: 1/8
M: 2/4
K: Bb
c'> c' b d' [I:setbarnb 1]| 
c'> bc'2 | 
d'> f' c' b | 
g> fg2 | 
bb2c' | 
d' c' d' a | 
g g/ g/ a g | 
f df2 | 
d/ f/ d/ f/g2 | 
c'2d' c' | 
b d' g f | 
e3f | 
g g/ b/ f e | 
c4 |]  



